X:1
T:James Gibb editions
T:There rolls the deep - Parry
T:#
%%score [ 1 2 3 4 ]
L:1/8
Q:1/4=60
M:3/4
K:G
V:1 treble nm="Soprano" snm="S"
V:2 treble nm="Alto" snm="A"
V:3 treble-8 nm="Tenor" snm="T"
V:4 bass nm="Bass" snm="B"
V:1
!p!"^C. H. H. Parry\n(1848-1918)""^Alfred, Lord Tennyson\n(1809-92)""^There rolls the deep" G!<(!A>B | %1
w: There rolls the|
 c3 A B>e!<)! |!f! e4!p! d2 | g4 B2 |!<(! B3 F!<)!!>(! A>G!>)! |[M:3/4] F3 z !>!^A2- | %6
w: deep where grew the|tree. O|earth, what|chang- es hast thou|seen! There,|
 A z B>^c!<(! dB!<)! |!f! f4 ^c2 |!>(! e4!>)!!pp! d2 | d4 F2 | z2!p!!<(! FG!<)!!>(! AF!>)! | %11
w: * where the long street|roars hath|been The|still- ness|of the cen- tral|
!p! D4 z D |!<(! (E2 F2)!<)! G2 |!>(! B2 A2!>)! DD |!<(! E>E F2!<)! G2 |"^cresc." B3 A BA | d4 E2 | %17
w: sea. The|hills * are|sha- dows, and they|flow From form to|form, and no- thing|stands; They|
!<(! (F2 ^G2)!<)! A2 |!f! c4 c2 | !>!ec !tenuto!A2 z!mf! c |!<(! (Be g3)!<)!!>(! f | %21
w: melt * like|mist, the|so- lid lands, Like|clouds * * they|
"^rit."[Q:1/4=58] e>[Q:1/4=56]B[Q:1/4=54] G2!>)![Q:1/4=52] z[Q:1/4=50] G |[Q:1/4=50] E6 || %23
w: shape them- selves and|go.|
"^a tempo"[Q:1/4=60] z2 z!p!!<(! G AB!<)! | c3"^cresc." A Be |!>(! e4 d2!>)! |!p! g4 B2 | %27
w: But in my|spi- rit will I|dwell, and|dream my|
!<(! B3 F!<)! A!>(!G!>)! |!p! F4 z ^A | B^c!<(! d3 B!<)! | f z/!pp! ^c/ e4- | %31
w: dream, and hold it|true; For|though my lips may|breathe a- dieu,|
 e2 z!p!"^poco animando"[Q:1/4=66] G GG |!<(! (GF!<)! A)c B>F | A3"^cresc." ^G BB | %34
w: * I can- not|think * * the thing fare-|well, I can- not|
[Q:1/4=66][Q:1/4=66][Q:1/4=66][Q:1/4=66] (BA c)e dG | B6- |!<(! B z!<)! ed!<(! BG!<)! | %37
w: think * * the thing fare-|well,|* can- not think the|
!>(! (c2 B2)!>)! z!p! A |"^rit."[Q:1/4=62] G4[Q:1/4=60]!<(!!>(! c2!<)!!>)! |!p!!<(! FG!<)! B2 z A | %40
w: thing * fare-|well, I|can- not think fare-|
 G6- | G!<(!G!<)! (!>!BA) z!pp! F | !fermata!G6 |] %43
w: well,|* fare- well, * fare-|well.|
V:2
!p! G!<(!G>G | G3 F G>G!<)! |!f! G4!p! F2 | G4 D2 |!<(! ^D3 F!<)!!>(! FE!>)! | %5
w: There rolls the|deep where grew the|tree. O|earth, what|chang- es hast thou|
[M:3/4] ^C3 z !>!F2- | F z F>^A!<(! BB!<)! |!f! F4 ^c2 |!>(! (^c2!>)! B2)!pp! F2 | F4 D2 | %10
w: seen!~seen! There,|* where the long street|roars hath|been * The|still- ness|
 z2!p!!<(! DD!<)!!>(! ^CC!>)! |!p! (B,2 A,2) z D |!<(! D4!<)! D2 |!>(! D2 D2!>)! DD | %14
w: of the cen- tral|sea. * The|hills are|sha- dows, and they|
!<(! D>D D2!<)! D2 |"^cresc." D3 x DE | =F4 E2 |!<(! E4!<)! E2 |!f! (=F2 ^F2) G2 | %19
w: flow From form to|form, no- thing|stands; They|melt like|mist, * the|
 !>!AA !tenuto!E2 z!mf! E |!<(! E3 B!<)!!>(! cF |"^rit." G>E E2!>)! ^D2 | E6 || %23
w: so- lid lands, Like|clouds, like clouds they|shape them- selves and|go.|
"^a tempo" z2 z!p!!<(! G GG!<)! | (GA E)"^cresc."F GB |!>(! (c2 B2)!>)! A2 |!p! G4 D2 | %27
w: But in my|spi\- * * rit will I|dwell, * and|dream my|
!<(! ^D3 F!<)! F!>(!E!>)! |!p! ^C4 z F | F^A!<(! B3 F!<)! | F z/!pp! F/ G4- | G2 z!p! E EE | %32
w: dream, and hold it|true; For|though my lips may|breathe a- dieu,|* I can- not|
!<(! (ED!<)! F)F FF | F3"^cresc." E EE | E3 ^C DG | G!<(!F A!<)!G FE | D4!<(! G2!<)! | %37
w: think * * the thing fare-|well,~well, I can- not|think the thing fare-|well, I can- not think the|thing, the|
!>(! (G2 F2)!>)! z!p! F |"^rit." G4!<(!!>(! G2!<)!!>)! |!p!!<(! DE!<)! F2 z F |!<(! G4!<)! G,2 | %41
w: thing * fare-|well, I|can- not think fare-|well, fare-|
 G,4!pp! C2 | (C2 !fermata!D4) |] %43
w: well, fare-|well. *|
V:3
!p! B!<(!e>d | c3 e d>d!<)! |!f! c4!p! d2 | d4 B2 |!<(! B3 B!<)!!>(! cB!>)! | %5
w: There rolls the|deep where grew the|tree. O|earth, what|chang- es hast thou|
[M:3/4][K:treble-8] ^A3 z !>!^c2- | c z f>e!<(! dd!<)! |!f! ^c4 f2 |!>(! (g2!>)! f2)!pp! B2 | %9
w: seen! There,|* where the long street|roars hath|been * The|
 d4 A2 | z2!p!!<(! AB!<)!!>(! AG!>)! |!p! (G2 F2) z d |!<(! (B2 A2)!<)! G2 |!>(! ^G2 A2!>)! dd | %14
w: still- ness|of the cen- tral|sea. * The|hills * are|sha- dows, and they|
!<(! B>B A2!<)! G2 |"^cresc." G3 F FA | A4 ^G2 |!<(! (A2 B2)!<)! c2 |!f! (d2 ^d2) e2 | %19
w: flow From form to|form, and no- thing|stands; They|melt * like|mist, * the|
 !>!cc !tenuto!c2 z!mf! A |!<(! (B2 e2)!<)!!>(! c2 |"^rit." B>G B2 A2!>)! | G6 || %23
w: so- lid lands, Like|clouds * they|shape them- selves and|go.|
"^a tempo" z2 z!p!!<(! B ed!<)! | c3"^cresc." e dg |!>(! g4 (f!>)!e) |!p! d4 B2 | %27
w: But in my|spi- rit will I|dwell, and *|dream my|
!<(!!<(! B3!<)! c!<)! !>!c!>(!B!>)! |!p! ^A4 z ^c | fe!<(! d3 d!<)! | ^c z/!pp! c/ c4- | %31
w: dream, and hold it|true; For|though my lips may|breathe a- dieu,|
 c2 z!p! !courtesy!^c BA | A3 A!<(! B>B!<)! | c3"^cresc." B Bd | (dc e)f gd | e4 G2 | %36
w: * I can- not|think the thing fare-|well, I can- not|think * * the thing fare-|well, I|
 (GA c)B!<(! d^d!<)! |!>(! (e2 d2)!>)! z!p! c |"^rit." B4!>(!!<(! ^d2!>)!!<)! | %39
w: can\- * * not think the|thing * fare-|well, I|
!p!!<(! AB!<)! d2 z c |!<(! (B2 c2)!<)! ^c2 |!>(! (d2!>)! _e2)!pp! A2 | (A2 !fermata!B4) |] %43
w: can- not think fare-|well, * fare-|well, * fare-|well. *|
V:4
!p! E,!<(!C,>B,, | A,,3 C, B,,B,!<)! |!f! A,4!p! C2 | B,4 G,2 |!<(! F,3 ^D,!<)!!>(! E,E,!>)! | %5
w: There rolls the|deep where grew the|tree. O|earth, what|chang- es hast thou|
[M:3/4] F,3 z !>!E,2- | E, z D,>^C,!<(! B,,B,!<)! |!f! ^A,6- | %8
w: seen!~seen! There,|* where the long street|roars|
 A,!>(!!courtesy!^A,!>)! B,2!pp! B,,2 | A,,4 A,,2 | z2 z2!p! A,,A,, | B,,^C, D,2 z D, | %12
w: * hath been The|still- ness|of the|cen- tral sea. The|
!<(! (G,2 F,2)!<)! E,2 |!>(! ^E,2 F,2!>)! D,D, |!<(! G,>G, F,2!<)! E,2 |"^cresc." D,3 D, C,C, | %16
w: hills * are|sha- dows, and they|flow From form to|form, and no- thing|
 B,,4 E,2 |!<(! (C,2 B,,2)!<)! A,,2 |!f! (_A,,2 _A,2) G,2 | !>!F,F, !tenuto!F,2 z!mf! F, | %20
w: stands; They|melt * like|mist, * the|so- lid lands, Like|
!<(! G,3 G,!<)!!>(! A,A, |"^rit." B,3 B,, B,,>B,,!>)! | E,6 ||"^a tempo" z2 z!p!!<(! E, C,B,,!<)! | %24
w: clouds, like clouds they|shape them- selves and|go.|But in my|
 A,,3"^cresc." C, B,,B, |!>(! A,4 C2!>)! |!p! B,4 G,2 |!<(! F,3 ^D,!<)! E,>!>(!E,!>)! | %28
w: spi- rit will I|dwell, and|dream my|dream, and hold it|
!p! F,4 z E, | D,^C,!<(! B,,2 B,2!<)! | ^A, z/!pp! A,/ =A,4- | A,2 z!p! A,, B,,^C, | %32
w: true; For|though my lips may|breathe a- dieu,|* I can- not|
 D,3 D,!<(! ^D,D,!<)! | E,3"^cresc." E, F,^G, | A,3 ^A, B,B, | ^C4 ^C,2 | D,4 D,2 | %37
w: think the thing fare-|well,~well, I can- not|think the thing fare-|well, I|can- not|
!>(! D,4!>)! z!p! ^D, |"^rit."!<(! (E,^D,!<)! F,)!>(!E,!>)! C,A,, |!p! D,4 z D, | %40
w: think, I|can\- * * not think the|thing fare-|
!<(! (G,,2 A,,2)!<)! ^A,,2 |!<(! (B,,2!<)! C,2)!>(! _E,2!>)! |!pp! !fermata!G,,6 |] %43
w: well, * fare-|well, * fare\-|well.|

